logos/dgraph-alt.svg

<?xml version="1.0" encoding="UTF-8"?>
<svg width="512px" height="155px" viewBox="0 0 512 155" version="1.1" xmlns="http://www.w3.org/2000/svg" xmlns:xlink="http://www.w3.org/1999/xlink"  preserveAspectRatio="xMidYMid">
    <title>Dgraph</title>
    <defs>
        <linearGradient x1="0%" y1="50%" x2="100%" y2="50%" id="linearGradient-1">
            <stop stop-color="#FF1800" offset="0%"></stop>
            <stop stop-color="#FF009B" offset="100%"></stop>
        </linearGradient>
    </defs>
    <g>
        <path d="M104.665246,27.7509473 C106.175676,24.996333 106.969291,21.903792 106.969291,18.76005 C106.952378,8.40617439 98.563117,0.0169135251 88.2092413,0 C79.5871783,0.0104488379 72.078549,5.88731801 69.9970421,14.2543611 L64.8103798,14.0495571 C29.0210148,14.0552101 0.00862203125,43.0653107 4.69771831e-05,78.8546753 C-0.0203388186,95.7663688 6.59483165,112.017569 18.4222649,124.106128 C15.9646164,127.352272 14.6436304,131.30499 14.6487505,135.37035 C14.665664,145.724226 23.0549249,154.113487 33.4088005,154.1304 C41.3347168,154.1304 48.1700516,149.153662 50.8939454,142.149364 C55.463472,143.149651 60.1275307,143.654338 64.8052597,143.654673 C100.596624,143.649019 129.609844,114.635799 129.615585,78.8444351 C129.63867,58.8761955 120.428386,40.0190233 104.665246,27.7611875 L104.665246,27.7509473 Z M88.2041212,30.2751571 C87.2230418,30.2755102 86.2458654,30.1516428 85.2959039,29.9065099 L77.5133504,52.4861552 L88.8799746,50.6326786 L72.8694188,76.7247133 L86.1919216,73.4888094 L41.3295967,126.978504 C45.5940944,131.067484 46.0740537,137.719716 42.4407101,142.378525 C38.8073665,147.037335 32.2386199,148.192374 27.2339587,145.052461 C22.2442668,141.871772 20.4756823,135.428178 23.1425513,130.145979 C25.8094203,124.863782 32.044355,122.460993 37.5663225,124.587417 L50.2795332,96.8518302 L37.8735286,100.210616 L58.0467264,71.3332469 L45.6458419,74.3336261 L80.8055753,27.5205428 C77.1037697,24.4073953 75.740821,19.3133939 77.3934111,14.7676268 C79.0460012,10.2218597 83.3621662,7.19247067 88.1990011,7.18350168 C94.559448,7.18350168 99.7164015,12.3381626 99.7192284,18.6986088 C99.7192284,25.0590557 94.5645675,30.2160092 88.2041212,30.218836 L88.2041212,30.2751571 Z" fill="url(#linearGradient-1)"></path>
        <path d="M165.68661,31.232616 L192.024409,31.232616 C202.264611,31.3042974 209.857721,35.6717436 214.962461,44.3400745 C216.785217,47.2585321 217.93212,50.3101123 218.41853,53.5562563 C218.797417,56.7563194 218.93054,62.2809084 218.93054,70.1300232 C218.93054,78.4757878 218.638694,84.3127029 218.060123,87.6151681 C217.822006,89.1514789 217.406196,90.6549217 216.821058,92.0952564 C216.237367,93.3752817 215.530793,94.6553069 214.701336,96.0889352 C212.499693,99.7446873 209.427632,102.770667 205.510755,105.151514 C201.619478,107.711564 196.806583,108.99159 191.205193,108.99159 L165.68661,108.99159 L165.68661,31.232616 Z M177.083954,97.8707303 L190.723903,97.8707303 C197.13427,97.8707303 201.783322,95.6076457 204.681299,91.0865965 C205.961324,89.4123235 206.76518,87.2977218 207.108227,84.7274311 C207.415433,82.1981012 207.620237,77.4568877 207.620237,70.5191509 L207.108227,55.9883043 C206.698618,53.0698467 205.715559,50.69924 204.164168,48.8816041 C200.989706,44.3605549 196.509618,42.2254728 190.723903,42.3125145 L177.073714,42.3125145 L177.073714,97.8656102 L177.083954,97.8707303 Z M269.061448,103.180275 C265.518339,107.317317 260.905128,109.452399 255.237176,109.600882 C251.765747,109.52408 248.87801,108.761185 246.573965,107.307076 C244.167517,105.924649 242.324281,104.42446 241.044256,102.826988 C239.636228,101.014472 238.622448,98.7923485 238.002916,96.1554965 C237.347543,93.5596053 236.978896,88.6187078 236.978896,81.327684 C236.978896,73.8932974 237.301462,68.8602381 238.002916,66.2233861 C238.617328,63.6274949 239.641348,61.4412118 241.044256,59.6696569 C242.324281,57.9390627 244.157277,56.382552 246.573965,55.0001248 C248.87801,53.694499 251.765747,52.9520844 255.237176,52.9367241 C260.562081,52.9367241 265.180412,55.1230072 269.061448,59.4904533 L269.061448,53.6176975 L279.813661,53.6176975 L279.813661,107.614283 C279.675418,115.929327 277.356012,122.042727 272.850323,125.954484 C268.313914,129.973764 262.886607,131.980843 256.558162,131.980843 C249.308099,131.83748 243.117897,128.755179 237.997796,122.723701 L246.358921,115.862765 C247.772348,117.209086 249.370547,118.346962 251.105254,119.242032 C252.832999,120.252991 254.783189,120.822749 256.783446,120.900945 C260.459679,120.900945 263.424217,119.851324 265.656581,117.741842 C267.858225,115.5914 268.994887,112.637102 269.066569,108.848227 L269.066569,103.180275 L269.061448,103.180275 Z M247.782309,81.3430443 L248.191917,90.1137773 C248.432562,91.7880504 249.000893,93.1858379 249.89691,94.2866596 C250.613725,95.2850793 251.724787,96.1913372 253.204496,97.0105534 C254.612523,98.0089731 256.378958,98.510743 258.4782,98.510743 C260.577441,98.510743 262.333636,98.0089731 263.751904,97.0105534 C265.165052,96.1913372 266.230033,95.2799592 266.957087,94.2866596 C267.900549,93.0696262 268.522148,91.6344892 268.764483,90.1137773 C268.969287,88.5060656 269.071689,85.582488 269.071689,81.3430443 L268.764483,72.3572671 C268.457277,70.6829941 267.853105,69.3261673 266.957087,68.2919069 C266.240273,67.2934872 265.165052,66.3104279 263.751904,65.3478489 C262.338756,64.5286327 260.587681,64.0831839 258.4782,64.0166226 C256.430159,64.088304 254.622764,64.5286327 253.204496,65.3478489 C251.668465,66.3104279 250.623965,67.2934872 249.89691,68.2919069 C249.000893,69.3261673 248.432562,70.6829941 248.191917,72.3572671 C247.915431,74.0366602 247.782309,77.0319193 247.782309,81.3430443 Z M301.06208,53.6228176 L311.814292,53.6228176 L311.814292,59.4853332 L312.039576,59.4853332 C315.587806,55.112767 320.231738,52.931604 325.986731,52.931604 C330.131609,52.9406268 334.133018,54.4502488 337.250953,57.1812878 L329.396718,66.7968375 C327.123394,64.9433609 324.763027,64.0166226 322.315619,64.0166226 C319.680563,63.9655981 317.133251,64.9638938 315.234519,66.7917173 C313.032876,68.6042331 311.891093,71.5431711 311.819412,75.598291 L311.819412,108.960869 L301.0672,108.960869 L301.06208,53.6228176 Z M375.180661,104.055812 L374.975857,104.055812 C373.969088,105.949063 372.323616,107.424001 370.331926,108.218454 C368.268525,109.140073 365.416629,109.600882 361.765997,109.600882 C355.775479,109.52408 351.167388,107.895888 347.941724,104.695825 C344.536857,101.623764 342.831863,97.5276836 342.831863,92.7045484 C342.831863,88.0964575 344.367894,84.1949406 347.270991,81.1331202 C350.174088,78.0712998 354.562015,76.4123871 360.276048,76.3355856 L375.190902,76.3355856 L375.190902,70.4986705 C375.257463,65.6038539 371.596591,63.2281271 364.192925,63.3305291 C361.504872,63.3305291 359.39027,63.6121346 357.844,64.1855859 C356.221335,64.8650912 354.876754,66.0743112 354.029524,67.6160536 L345.606958,60.9906429 C349.703039,55.4762942 355.734518,52.7882412 363.716755,52.931604 C370.454808,52.8599226 375.841155,54.1757885 379.865554,56.8740817 C383.889953,59.6389363 385.937994,64.4108704 386.009675,71.2103645 L386.009675,109.058151 L375.257463,109.058151 L375.180661,104.055812 Z M375.180661,85.4954462 L362.252406,85.4954462 C355.970043,85.6388091 352.872381,87.8609329 352.933823,92.1669378 C352.933823,94.0460149 353.742799,95.6486065 355.365871,96.9695926 C356.917261,98.4288213 359.487552,99.1558757 363.071623,99.1558757 C367.587552,99.2275571 370.777375,98.6745862 372.646211,97.5020831 C374.335845,96.3244598 375.180661,93.6620073 375.180661,89.4993652 L375.180661,85.4954462 Z M407.078891,53.6228176 L417.831103,53.6228176 L417.831103,59.3778111 C421.415173,55.2561298 426.023264,53.1056874 431.655375,52.9264839 C438.224465,53.1005673 443.022,55.5223751 446.053099,60.1765469 C447.58913,61.9173812 448.541468,64.2060664 449.094439,67.0528425 C449.606449,69.868898 449.862454,74.630592 449.862454,81.3891253 C449.862454,87.9274942 449.606449,92.6175067 449.094439,95.469403 C448.546588,98.311059 447.532808,100.589504 446.053099,102.458341 C444.517069,104.588303 442.622632,106.298417 440.216184,107.578442 C437.845577,108.894308 434.993681,109.626482 431.655375,109.657203 C429.074935,109.701019 426.529036,109.059685 424.27731,107.798606 C421.875837,106.622177 419.693797,105.042795 417.825983,103.129074 L417.825983,131.402272 L407.073771,131.402272 L407.073771,53.6176975 L407.078891,53.6228176 Z M428.429712,98.510743 C430.974402,98.510743 433.037803,98.0089731 434.471431,97.0105534 C435.89804,96.0397506 436.997536,94.6600241 437.625413,93.0527153 C438.342227,91.2709202 438.803036,89.3969632 439.018081,87.4871655 L439.120483,81.3430443 L439.018081,74.8712367 C438.825109,72.9601804 438.356004,71.0872111 437.625413,69.310807 C437.036601,67.6723747 435.93578,66.2387464 434.471431,65.352969 C432.935401,64.4620714 430.974402,64.0217427 428.429712,64.0217427 C426.023264,64.0217427 424.103226,64.5337528 422.695199,65.5731333 C421.23597,66.5766731 420.099307,67.9949411 419.438814,69.6384935 C418.764748,71.3913838 418.330729,73.2273499 418.148549,75.0965211 C417.943745,77.1752821 417.841343,79.2642833 417.841343,81.3532846 C417.841343,83.3194033 417.943745,85.2752819 418.148549,87.2414007 C418.353353,89.3048014 418.783441,91.1838784 419.438814,92.8581515 C420.100427,94.504276 421.23322,95.9184852 422.695199,96.9235116 C424.103226,97.9475318 426.023264,98.5261033 428.429712,98.5261033 L428.429712,98.510743 Z M469.206196,31.232616 L479.958408,31.232616 L479.958408,59.4853332 L480.163212,59.4853332 C483.499182,55.2070702 488.672065,52.7717657 494.095007,52.9264839 C498.529014,52.9264839 502.594374,54.5444358 506.265487,57.7752195 C509.916119,61.0520841 511.820796,65.8444987 512,72.1115023 L512,108.894308 L501.247788,108.894308 L501.247788,75.9054971 C501.247788,72.0244606 500.249368,69.0752824 498.252529,67.0477224 C496.29153,64.9843217 493.7622,63.9500613 490.659419,63.9500613 C487.556638,63.9500613 485.017068,64.9740815 483.020228,67.0477224 C480.987548,69.0752824 479.968648,72.0295807 479.968648,75.9054971 L479.968648,108.894308 L469.216436,108.894308 L469.206196,31.232616 Z" fill="#000000"></path>
    </g>
</svg>

<?xml version="1.0" encoding="UTF-8"?>
<svg width="512" height="155" version="1.1" xmlns="http://www.w3.org/2000/svg" preserveAspectRatio="xMidYMid">
	<defs>
		<linearGradient x1="0%" y1="50%" x2="100%" y2="50%" id="a">
			<stop stop-color="#FF1800" offset="0%"/>
			<stop stop-color="#FF009B" offset="100%"/>
		</linearGradient>
	</defs>
	<path d="M104.665 27.75a18.702 18.702 0 0 0 2.304-8.99C106.952 8.406 98.563.017 88.21 0a18.79 18.79 0 0 0-18.212 14.254l-5.187-.204C29.021 14.055.01 43.065 0 78.855a64.601 64.601 0 0 0 18.422 45.251 18.611 18.611 0 0 0-3.773 11.264c.017 10.354 8.406 18.743 18.76 18.76 7.926 0 14.761-4.976 17.485-11.98 4.57 1 9.234 1.504 13.911 1.505 35.792-.006 64.805-29.02 64.81-64.81a64.616 64.616 0 0 0-24.95-51.084v-.01Zm-16.46 2.525c-.982 0-1.96-.123-2.91-.368l-7.782 22.58 11.367-1.854-16.01 26.092 13.322-3.236-44.862 53.49a11.52 11.52 0 0 1-14.096 18.073 11.52 11.52 0 0 1 10.332-20.465L50.28 96.852l-12.406 3.359 20.173-28.878-12.401 3 35.16-46.812a11.52 11.52 0 0 1 7.393-20.337c6.36 0 11.517 5.154 11.52 11.515 0 6.36-5.154 11.517-11.515 11.52v.056Z" fill="url(#a)"/>
	<path d="M165.687 31.233h26.337c10.24.071 17.834 4.439 22.938 13.107 1.823 2.919 2.97 5.97 3.457 9.216.378 3.2.512 8.725.512 16.574 0 8.346-.292 14.183-.87 17.485a20.07 20.07 0 0 1-1.24 4.48c-.584 1.28-1.29 2.56-2.12 3.994-2.201 3.656-5.273 6.682-9.19 9.063-3.892 2.56-8.704 3.84-14.306 3.84h-25.518v-77.76Zm11.397 66.638h13.64c6.41 0 11.06-2.263 13.957-6.784 1.28-1.675 2.084-3.79 2.427-6.36.307-2.529.512-7.27.512-14.208l-.512-14.53c-.41-2.92-1.392-5.29-2.944-7.107-3.174-4.521-7.654-6.657-13.44-6.57h-13.65v55.554l.01.005Zm91.977 5.31c-3.543 4.136-8.156 6.271-13.824 6.42-3.471-.077-6.359-.84-8.663-2.294-2.406-1.382-4.25-2.883-5.53-4.48-1.408-1.813-2.422-4.035-3.041-6.672-.655-2.595-1.024-7.536-1.024-14.827 0-7.435.322-12.468 1.024-15.105.614-2.596 1.638-4.782 3.041-6.553 1.28-1.73 3.113-3.287 5.53-4.67 2.304-1.306 5.192-2.048 8.663-2.063 5.325 0 9.943 2.186 13.824 6.553v-5.872h10.753v53.996c-.139 8.315-2.458 14.429-6.964 18.34-4.536 4.02-9.963 6.027-16.292 6.027-7.25-.144-13.44-3.226-18.56-9.257l8.36-6.861a20.532 20.532 0 0 0 4.747 3.379 12.186 12.186 0 0 0 5.678 1.659c3.677 0 6.641-1.05 8.874-3.16 2.201-2.15 3.338-5.104 3.41-8.893v-5.668h-.006Zm-21.279-21.838.41 8.77c.24 1.675.809 3.073 1.705 4.174.717.998 1.828 1.904 3.307 2.724 1.409.998 3.175 1.5 5.274 1.5 2.1 0 3.856-.502 5.274-1.5 1.413-.82 2.478-1.731 3.205-2.724a9.165 9.165 0 0 0 1.807-4.173c.205-1.608.308-4.532.308-8.771l-.308-8.986c-.307-1.674-.91-3.03-1.807-4.065-.717-.999-1.792-1.982-3.205-2.944-1.413-.82-3.164-1.265-5.274-1.331-2.048.071-3.855.512-5.274 1.33-1.536.963-2.58 1.946-3.307 2.945-.896 1.034-1.464 2.391-1.705 4.065-.277 1.68-.41 4.675-.41 8.986Zm53.28-27.72h10.752v5.862h.226c3.548-4.372 8.192-6.553 13.947-6.553a17.152 17.152 0 0 1 11.264 4.25l-7.854 9.615c-2.274-1.854-4.634-2.78-7.081-2.78a9.933 9.933 0 0 0-7.081 2.775c-2.202 1.812-3.344 4.751-3.416 8.806v33.363h-10.752l-.005-55.338Zm74.119 50.433h-.205a9.063 9.063 0 0 1-4.644 4.162c-2.063.922-4.915 1.383-8.566 1.383-5.99-.077-10.599-1.705-13.824-4.905-3.405-3.072-5.11-7.168-5.11-11.991 0-4.609 1.536-8.51 4.439-11.572 2.903-3.062 7.291-4.72 13.005-4.797h14.915v-5.837c.066-4.895-3.594-7.27-10.998-7.168-2.688 0-4.803.281-6.349.855a7.783 7.783 0 0 0-3.814 3.43l-8.423-6.625c4.096-5.515 10.128-8.203 18.11-8.06 6.738-.071 12.124 1.245 16.149 3.943 4.024 2.765 6.072 7.537 6.144 14.336v37.848h-10.753l-.076-5.002Zm0-18.56h-12.929c-6.282.143-9.38 2.365-9.318 6.67 0 1.88.809 3.483 2.432 4.804 1.551 1.459 4.122 2.186 7.706 2.186 4.516.072 7.705-.481 9.574-1.654 1.69-1.178 2.535-3.84 2.535-8.003v-4.004Zm31.898-31.873h10.752v5.755c3.584-4.122 8.192-6.272 13.824-6.452 6.57.175 11.367 2.596 14.398 7.25 1.536 1.741 2.488 4.03 3.041 6.877.512 2.816.768 7.578.768 14.336 0 6.538-.256 11.229-.768 14.08-.547 2.842-1.561 5.12-3.04 6.99-1.537 2.13-3.431 3.84-5.838 5.12-2.37 1.315-5.222 2.047-8.56 2.078a14.592 14.592 0 0 1-7.379-1.858 23.399 23.399 0 0 1-6.451-4.67v28.273h-10.752V53.618l.005.005Zm21.35 44.888c2.545 0 4.609-.502 6.042-1.5a8.55 8.55 0 0 0 3.154-3.958 21.285 21.285 0 0 0 1.393-5.566l.102-6.144-.102-6.472a19.866 19.866 0 0 0-1.393-5.56c-.588-1.639-1.69-3.072-3.154-3.958-1.536-.89-3.497-1.331-6.041-1.331-2.407 0-4.327.512-5.735 1.551a9.028 9.028 0 0 0-3.256 4.065 20.839 20.839 0 0 0-1.29 5.459 63.827 63.827 0 0 0-.308 6.256c0 1.966.103 3.922.308 5.888.204 2.064.634 3.943 1.29 5.617a9.011 9.011 0 0 0 3.256 4.066c1.408 1.024 3.328 1.602 5.735 1.602v-.015Zm40.777-67.278h10.752v28.252h.205a17.05 17.05 0 0 1 13.932-6.559c4.434 0 8.5 1.618 12.17 4.85 3.651 3.276 5.556 8.068 5.735 14.336v36.782h-10.752V75.905c0-3.88-.999-6.83-2.995-8.857-1.961-2.064-4.49-3.098-7.594-3.098-3.102 0-5.642 1.024-7.639 3.098-2.032 2.027-3.051 4.982-3.051 8.857v32.99h-10.753l-.01-77.662Z" fill="#000"/>
</svg>
